files/resources/svgs/general/m-variable.svg

<svg width="20" height="20" viewBox="0 0 20 20" fill="none" xmlns="http://www.w3.org/2000/svg">
<path fill-rule="evenodd" clip-rule="evenodd" d="M15.212 2.07905C15.5825 1.894 16.033 2.0444 16.218 2.41498C17.3587 4.6992 18 7.2758 18 10C18 12.7243 17.3587 15.3009 16.218 17.5851C16.033 17.9557 15.5825 18.1061 15.212 17.921C14.8414 17.736 14.691 17.2856 14.876 16.915C15.9151 14.8342 16.5 12.4865 16.5 10C16.5 7.51359 15.9151 5.16592 14.876 3.0851C14.691 2.71452 14.8414 2.2641 15.212 2.07905ZM4.78803 2.07905C5.15861 2.2641 5.30901 2.71452 5.12397 3.0851C4.08491 5.16591 3.5 7.51359 3.5 10C3.5 12.4865 4.08491 14.8342 5.12397 16.915C5.30901 17.2856 5.15861 17.736 4.78803 17.921C4.41745 18.1061 3.96703 17.9557 3.78198 17.5851C2.64135 15.3009 2 12.7243 2 10C2 7.2758 2.64135 4.6992 3.78198 2.41498C3.96703 2.0444 4.41745 1.894 4.78803 2.07905ZM7.07277 5.63347C7.86037 5.10841 8.93143 5.43515 9.29184 6.31042L10.1483 8.39032L11.2942 6.61933C11.9758 5.56592 13.3873 5.27355 14.4313 5.96953L14.666 6.12601C15.0107 6.35577 15.1038 6.82142 14.874 7.16607C14.6443 7.51071 14.1786 7.60384 13.834 7.37408L13.5993 7.21761C13.2513 6.98561 12.7808 7.08307 12.5536 7.43421L10.8431 10.0777L12.0952 13.1185L12.834 12.626C13.1786 12.3962 13.6443 12.4894 13.874 12.834C14.1038 13.1787 14.0107 13.6443 13.666 13.8741L12.9272 14.3666C12.1396 14.8917 11.0686 14.5649 10.7082 13.6897L9.85173 11.6098L8.70579 13.3808C8.02418 14.4342 6.61265 14.7265 5.56869 14.0306L5.33397 13.8741C4.98933 13.6443 4.8962 13.1787 5.12596 12.834C5.35573 12.4894 5.82138 12.3962 6.16603 12.626L6.40074 12.7825C6.74873 13.0145 7.21923 12.917 7.44644 12.5659L9.15693 9.92239L7.90482 6.88155L7.16603 7.37408C6.82138 7.60384 6.35573 7.51071 6.12596 7.16607C5.8962 6.82142 5.98933 6.35577 6.33397 6.126L7.07277 5.63347Z" fill="#0F172A"/>
</svg>

<svg xmlns="http://www.w3.org/2000/svg" viewBox="0 0 20 20" fill="currentColor" aria-hidden="true">
  <path fill-rule="evenodd" d="M15.212 2.079a.75.75 0 011.006.336A16.932 16.932 0 0118 10c0 2.724-.641 5.3-1.782 7.585a.75.75 0 11-1.342-.67A15.432 15.432 0 0016.5 10c0-2.486-.585-4.834-1.624-6.915a.75.75 0 01.336-1.006zm-10.424 0a.75.75 0 01.336 1.006A15.433 15.433 0 003.5 10c0 2.486.585 4.834 1.624 6.915a.75.75 0 11-1.342.67A16.933 16.933 0 012 10c0-2.724.641-5.3 1.782-7.585a.75.75 0 011.006-.336zm2.285 3.554a1.5 1.5 0 012.219.677l.856 2.08 1.146-1.77a2.25 2.25 0 013.137-.65l.235.156a.75.75 0 11-.832 1.248l-.235-.156a.75.75 0 00-1.045.216l-1.71 2.644 1.251 3.04.739-.492a.75.75 0 11.832 1.248l-.739.493a1.5 1.5 0 01-2.219-.677l-.856-2.08-1.146 1.77a2.25 2.25 0 01-3.137.65l-.235-.156a.75.75 0 01.832-1.248l.235.157a.75.75 0 001.045-.217l1.71-2.644-1.251-3.04-.739.492a.75.75 0 01-.832-1.248l.739-.493z" clip-rule="evenodd"/>
</svg>
